build/images/content/clients/img_3.svg

<svg width="116" height="106" viewBox="0 0 116 106" fill="none" xmlns="http://www.w3.org/2000/svg">
<path d="M56.3856 8.63686L57.0927 9.34396L57.7998 8.63686L62.0882 4.34843C66.5528 -0.116145 73.8157 -0.116144 78.2803 4.34843C82.7449 8.81301 82.7449 16.0759 78.2803 20.5405L57.7078 41.113C57.5378 41.283 57.3164 41.3681 57.0927 41.3681C56.8689 41.3681 56.6476 41.283 56.4775 41.113L35.9051 20.5405C31.4405 16.0759 31.4405 8.81301 35.9051 4.34843C40.3696 -0.116144 47.6326 -0.116145 52.0971 4.34843L56.3856 8.63686Z" stroke="white" stroke-width="2"/>
<path d="M84.873 56.7606L74.6904 46.578C73.1235 45.011 70.5872 45.0107 69.0198 46.578L63.0615 52.5363C62.4789 52.1868 61.8747 51.8704 61.2497 51.5897C60.809 51.3917 60.2912 51.5884 60.0933 52.0291C59.8954 52.4698 60.0921 52.9875 60.5329 53.1855C61.7092 53.714 62.3974 54.1905 62.7293 54.3942C64.7358 55.7205 65.5318 56.8415 68.2164 59.4401C69.8814 61.1051 69.9333 63.9094 68.3297 65.5637C66.6691 67.277 63.8998 67.3399 62.173 65.613L57.9052 61.3451C57.6615 61.1015 57.2973 61.0236 56.9755 61.146C53.7149 62.3868 50.033 61.7788 47.3488 59.5677C47.0513 59.318 46.6271 59.297 46.3087 59.5056C46.1483 59.621 47.1449 58.6489 33.8736 71.9146C33.7956 70.3973 34.042 68.8818 34.6086 67.4574C34.7377 67.1328 34.6613 66.7625 34.4144 66.5156L28.7445 60.8456C27.8613 59.9623 27.861 58.5326 28.7445 57.649L38.927 47.4664C39.8083 46.5851 41.2422 46.5851 42.1235 47.4664C48.0628 53.3973 47.7291 53.0924 47.862 53.182C47.8736 53.1855 48.3136 53.5065 48.8089 53.2009C51.3018 51.8352 53.9434 51.572 56.7255 52.0347C57.2023 52.114 57.6526 51.792 57.7319 51.3153C57.8112 50.8388 57.4891 50.3882 57.0125 50.3089C53.9917 49.8066 51.1711 50.0901 48.5151 51.3839L43.3605 46.2294C41.7971 44.666 39.2533 44.6661 37.6899 46.2294L27.5074 56.412C25.9404 57.979 25.9401 60.5155 27.5074 62.0827L32.7808 67.3562C32.1011 69.3287 31.9344 71.4308 32.2929 73.4954L29.8423 75.946C27.8132 77.9753 27.8127 81.2601 29.8423 83.2896C30.7756 84.2228 31.9784 84.726 33.2025 84.7988L33.1871 84.8142C31.1579 86.8435 31.1577 90.1282 33.1873 92.1577C34.8448 93.8151 37.3535 94.1158 39.3194 93.0593C39.3241 94.9324 40.314 96.5552 41.7811 97.4635C42.19 97.7167 42.7298 97.5927 42.9853 97.1802C43.2396 96.7694 43.1128 96.2303 42.702 95.976C40.8157 94.808 40.5046 92.1837 42.0774 90.6109L52.0017 80.6865C52.3433 80.3449 52.3433 79.791 52.0017 79.4495C51.6601 79.1079 51.1063 79.1079 50.7648 79.4495L39.2938 90.9206C37.9512 92.263 35.7669 92.263 34.4244 90.9206C33.0818 89.5781 33.0818 87.3936 34.4244 86.0511L37.1859 83.2897C37.7076 82.768 45.7381 74.7374 46.4169 74.0586C46.7585 73.717 46.7585 73.1631 46.4169 72.8216C46.0753 72.48 45.5214 72.48 45.1799 72.8216C44.9126 73.0889 35.9367 82.0649 35.9489 82.0527C34.6064 83.3952 32.4221 83.3951 31.0795 82.0527C29.737 80.7102 29.737 78.5257 31.0795 77.1832L46.8652 61.3974C49.7804 63.476 53.5591 64.1076 57.0575 62.9718L60.9359 66.8502C63.3329 69.2471 67.2219 69.2203 69.586 66.7815C71.8717 64.4232 71.7894 60.539 69.4536 58.2032C66.709 55.5111 66.0806 54.6898 64.5404 53.5321L70.2571 47.8154C71.1403 46.932 72.5701 46.9319 73.4536 47.8154L83.636 57.9979C84.5174 58.8793 84.5174 60.3133 83.636 61.1946L77.0628 67.768C76.8159 68.015 76.7395 68.3852 76.8686 68.7098C78.4431 72.6681 77.4925 77.1483 74.5163 80.1246C73.4347 81.2062 56.7844 97.8566 55.6633 98.9777C54.3178 100.323 52.1397 100.323 50.7938 98.9777C49.4482 97.6321 49.448 95.454 50.7938 94.1082L59.641 85.261C59.9826 84.9194 59.9826 84.3655 59.641 84.0239C59.2993 83.6823 58.7455 83.6823 58.4039 84.0239C57.3591 85.0686 48.38 94.0478 46.947 95.4809C46.6588 95.7689 46.3276 96.001 45.9624 96.1705C45.5242 96.3738 45.3338 96.8938 45.5372 97.3321C45.7405 97.7704 46.2608 97.9608 46.6987 97.7575C47.1925 97.5284 47.6446 97.2244 48.045 96.8522C48.119 98.1229 48.6493 99.3072 49.5568 100.215C51.4322 102.09 54.33 102.205 56.3309 100.708C58.3688 102.562 61.5313 102.502 63.4956 100.538C64.5261 99.5072 65.0322 98.1473 65.0135 96.7937C68.617 98.5621 72.7533 95.74 72.4762 91.764C74.295 92.4333 76.4487 92.0568 77.9446 90.5608C79.7752 88.7304 79.9423 85.8964 78.5105 83.8855C79.7681 83.8342 81.0106 83.3295 81.9686 82.3714C83.993 80.3469 83.993 77.0525 81.9685 75.0278L79.3693 72.4287C79.3481 71.147 79.1271 69.8581 78.6964 68.6085L84.8732 62.4317C86.4364 60.8679 86.4364 58.324 84.873 56.7606ZM62.2583 99.3002C60.9874 100.571 58.9628 100.638 57.6115 99.5031L62.4613 94.6533C63.5963 96.0048 63.5292 98.0295 62.2583 99.3002ZM69.7333 94.5621C68.3877 95.9074 66.2096 95.9081 64.8638 94.5621L63.7081 93.4065L68.5775 88.537L69.7332 89.6927C71.0757 91.0353 71.0757 93.2196 69.7333 94.5621ZM76.7074 89.3232C75.3621 90.6688 73.1838 90.669 71.838 89.3232C69.9838 87.4689 71.6655 89.1506 69.8147 87.2998L74.6841 82.4303L76.7075 84.4538C78.0529 85.7991 78.0534 87.9774 76.7074 89.3232ZM79.1906 74.7237L80.7313 76.2644C82.0738 77.607 82.0738 79.7915 80.7311 81.134C79.4076 82.4576 77.2662 82.4752 75.9196 81.1889C77.6679 79.3718 78.7799 77.1114 79.1906 74.7237Z" fill="white"/>
<path d="M37.3573 104.78C27.965 101.131 19.7077 95.0578 13.427 87.1786C7.14622 79.2993 3.0664 69.896 1.60321 59.9265C0.140013 49.9571 1.34575 39.778 5.09755 30.4263C8.84936 21.0745 15.0131 12.8845 22.9609 6.69067" stroke="#00BBD3" stroke-width="2"/>
<path d="M77.1788 104.231C86.6242 100.722 94.9704 94.7712 101.367 86.9858C107.764 79.2004 111.982 69.8584 113.593 59.9117C115.204 49.9651 114.149 39.7692 110.536 30.363C106.923 20.9567 100.881 12.6764 93.0259 6.36553" stroke="#00BBD3" stroke-width="2"/>
</svg>

<svg width="116" height="106" fill="none" xmlns="http://www.w3.org/2000/svg"><path d="M56.386 8.637l.707.707.707-.707 4.288-4.289c4.465-4.464 11.728-4.464 16.192 0 4.465 4.465 4.465 11.728 0 16.193L57.708 41.112a.865.865 0 01-1.23 0L35.904 20.541c-4.465-4.465-4.465-11.728 0-16.193 4.465-4.464 11.728-4.464 16.192 0l4.289 4.289z" stroke="#fff" stroke-width="2"/><path d="M84.873 56.76L74.69 46.579a4.007 4.007 0 00-5.67 0l-5.958 5.958a17.294 17.294 0 00-1.812-.946.875.875 0 10-.717 1.595c1.176.529 1.864 1.005 2.196 1.21 2.007 1.325 2.803 2.447 5.487 5.045 1.665 1.665 1.717 4.47.114 6.124a4.318 4.318 0 01-6.157.049l-4.268-4.268a.875.875 0 00-.93-.199 9.72 9.72 0 01-9.626-1.578.875.875 0 00-1.04-.062c-.16.115.836-.857-12.435 12.409a10.569 10.569 0 01.735-4.458.875.875 0 00-.195-.941l-5.67-5.67a2.26 2.26 0 010-3.197l10.183-10.183a2.263 2.263 0 013.197 0c5.939 5.931 5.605 5.626 5.738 5.716.012.003.452.325.947.019 2.493-1.366 5.134-1.629 7.916-1.166a.875.875 0 10.288-1.726c-3.021-.502-5.842-.219-8.498 1.075l-5.154-5.155a4.014 4.014 0 00-5.671 0L27.507 56.412a4.008 4.008 0 000 5.67l5.274 5.274a12.326 12.326 0 00-.488 6.14l-2.45 2.45a5.19 5.19 0 003.36 8.853l-.016.015a5.19 5.19 0 000 7.344 5.202 5.202 0 006.132.901 5.183 5.183 0 002.462 4.404.875.875 0 00.921-1.487 3.445 3.445 0 01-.625-5.365l9.925-9.925a.875.875 0 00-1.237-1.237L39.294 90.921a3.447 3.447 0 01-4.87 0 3.447 3.447 0 010-4.87l2.762-2.761 9.23-9.231a.875.875 0 10-1.236-1.237l-9.231 9.23a3.447 3.447 0 01-4.87 0 3.447 3.447 0 010-4.869l15.786-15.786a11.468 11.468 0 0010.192 1.575l3.879 3.878a6.065 6.065 0 008.65-.069c2.286-2.358 2.203-6.242-.132-8.578-2.745-2.692-3.373-3.513-4.914-4.67l5.717-5.718a2.259 2.259 0 013.197 0l10.182 10.183a2.263 2.263 0 010 3.197l-6.573 6.573a.875.875 0 00-.194.942 10.599 10.599 0 01-2.353 11.415L55.663 98.978a3.442 3.442 0 01-4.87 0 3.441 3.441 0 010-4.87l8.848-8.847a.875.875 0 00-1.237-1.237L46.947 95.48a3.45 3.45 0 01-.985.69.875.875 0 10.737 1.586 5.157 5.157 0 001.346-.905 5.155 5.155 0 001.512 3.363 5.192 5.192 0 006.774.493 5.2 5.2 0 007.165-.17 5.18 5.18 0 001.517-3.744c3.604 1.768 7.74-1.054 7.463-5.03a5.193 5.193 0 005.469-1.203 5.193 5.193 0 00.566-6.676 5.173 5.173 0 003.458-1.514 5.199 5.199 0 000-7.343l-2.6-2.6a12.343 12.343 0 00-.673-3.82l6.177-6.176a4.015 4.015 0 000-5.671zM62.258 99.3a3.447 3.447 0 01-4.647.203l4.85-4.85a3.447 3.447 0 01-.203 4.647zm7.475-4.738a3.441 3.441 0 01-4.87 0l-1.155-1.156 4.87-4.869 1.155 1.156a3.447 3.447 0 010 4.87zm6.974-5.239a3.441 3.441 0 01-4.869 0L69.815 87.3l4.87-4.87 2.022 2.024a3.441 3.441 0 010 4.87zm2.484-14.6l1.54 1.541a3.447 3.447 0 010 4.87 3.446 3.446 0 01-4.811.055 12.33 12.33 0 003.27-6.465z" fill="#fff"/><path d="M37.357 104.78A57 57 0 0122.961 6.69m54.218 97.541a56.994 56.994 0 0036.414-44.32A56.995 56.995 0 0093.026 6.367" stroke="#00BBD3" stroke-width="2"/></svg>
